!!!OTL: 13. Bundeszeichen.
!!!ARE: Europa, Mitteleuropa, Deutschland; Schweiz
!!!SCT: B0013
!!!TXL: @@DE
!!!YEM: Copyright 1995, estate of Helmut Schaffrath.
**kern	**text
*ICvox	*
*Ivox	*
!! Mixed meters:  3/4; 4/4
*M3/4	*
*clefG2	*
*k[]	*
*C:	*
=1	=1
!LO:TX:a:t=P:encoded only higher voice:problem	!
!LO:TX:a:t=Kräftig, bestimmt.	!
{8.cc/	Frei
16g	und
4g	un-
4cc	-er-
=2	=2
8.a	-ſchüt-
16a	-ter-
2a}	-lich
=3	=3
{8b/	wach-
8cc/	-ſen
4dd/	un-
4b/	-ſre
=4	=4
8cc/L	Ei-
8ee/J	.
4cc/	-chen.
4r}	.
=5||	=5||
{8.b/	Mit
16cc/	dem
4dd/	Schmuck
4dd/	der
=6	=6
8.ee/	grü-
16cc/	-nen
4dd/	Blät-
4dd/}	-ter
=7	=7
{8.b/	ſtehn
16cc/	wir
4dd/	feſt
4dd/	in
=8	=8
8ee/	Sturm
8cc/	und
4dd/	Wet-
4dd/}	-ter,
=9	=9
{8.cc/	wan-
16b/	-ken
8a/L	nicht,
8ff/	.
8ee/J	.
8dd/	noch
=10	=10
*M4/4	*
*met(c)	*
(>4ee/	wei-
4dd/)	.
2cc/}	-chen,
=11	=11
*M3/4	*
{8.cc/	wan-
16b/	-ken
8a/L	nicht,
8ff/	.
8ee/J	.
8dd/	noch
=12	=12
*M4/4	*
*met(c)	*
!LO:TX:a:t=(ſehr gehalten)	!
(>4ee/	wei-
4dd/)	.
4cc/	-chen.
4r}	.
==	==
!!!AGN: politisch, national, Vaterlands - Lied, Studenten - Lied
!!!GTL: Vaterlandslieder und Heimathgrüße
!!!ONB: ESAC (Essen Associative Code) Database: BOEHME
!!!AMT: irregular
!!!AIN: vox
!!!EED: Helmut Schaffrath
!!!EEV: 1.0
!!!RDF**kern: > = above
!! Mel. "Brüder, laßt uns luſtig ſein" (1788).
!!@@COMMENT:"Gedicht von Hoffmann v. Fallersleben 1842. Zuerst in "Deutsche Lieder aus der Schweiz." Zürich und Winterthur 1843. S.117."
!!Text: Hoffmann v. Fallersleben
!!@@END:
!!!URL-scan: https://archive.org/details/BoehmeVtLieder1895/page/n35/mode/2up
!!!ENC: Anna Maria Matuszewska
!!!EEV: 2024/13/0
*-	*-
